X: 834
T: The Mullingar races
C: anon.
O: Ireland
B: Francis O'Neill: "The Dance Music of Ireland" (1907) no. 834
R: hornpipe
Z: Transcribed by Frank Nordberg - http://www.musicaviva.com
F: http://www.musicaviva.com/abc/tunes/ireland/oneill-1001/oneill-1001-083
4.abc
M: 2/4
L: 1/16
K: G
D2 | GABG ABcA | defe dcBA | BcBG ABAG | FGAB cAFD |\
GABG ABcA | defd dcBA | B2d2 cAGF | D(G{A}GF) G2 :|
(3def | g2eg f2ed | gage f2(ed) | defg abag | f2dd (de)dc |\
B2BG AFD2 | BdBG ABcA | defd cAGF | D(G{A}GF) G2 :|
W:
W:
W: From Musica Viva - http://www.musicaviva.com
W: the Internet center for free sheet music downloads.


